assets/images/ico_incognito.svg

<svg width="39" height="36" viewBox="0 0 39 36" fill="none" xmlns="http://www.w3.org/2000/svg">
<path fill-rule="evenodd" clip-rule="evenodd" d="M19.7162 6.66858C8.43196 6.66858 1.70099 15.5919 0.948704 16.6304C0.354797 17.4381 0.354797 18.592 0.948704 19.3997C1.45396 20.0972 4.65604 24.3513 10.1232 27.0701L11.5397 25.6194C6.20428 23.1572 3.08079 18.993 2.61165 18.3228C2.49287 18.1305 2.49287 17.8997 2.61165 17.7074C3.28475 16.7843 9.42181 8.59171 19.7162 8.59171C22.4642 8.59171 24.9158 9.17546 27.0465 10.0489L28.5329 8.59171C26.0211 7.45668 23.0698 6.66858 19.7162 6.66858Z" fill="white"/>
<path fill-rule="evenodd" clip-rule="evenodd" d="M38.4838 16.6302C38.0905 16.0873 36.0632 13.3894 32.6057 10.9382L31.4674 12.5051C34.622 14.7529 36.4688 17.2243 36.8208 17.7071C36.9792 17.8994 36.9396 18.1302 36.8208 18.361L36.7812 18.3995C35.1975 20.5149 29.298 27.4382 19.7162 27.4382C18.399 27.4382 17.7336 27.6731 16.5552 27.4382L15.0788 28.8452C16.525 29.1719 18.0723 29.3613 19.7162 29.3613C30.2086 29.3613 36.6624 21.8611 38.4046 19.5533L38.4838 19.438C39.0777 18.5533 39.0777 17.4379 38.4838 16.6302Z" fill="white"/>
<path fill-rule="evenodd" clip-rule="evenodd" d="M25.0767 11.938C23.6368 10.7388 21.7647 10.0149 19.7164 10.0149C15.1631 10.0149 11.4808 13.5919 11.4808 18.0151C11.4808 20.005 12.226 21.8236 13.4605 23.2223L15.1642 22.1759C14.1088 21.0871 13.4605 19.6221 13.4605 18.0151C13.4605 14.6689 16.2717 11.938 19.7164 11.938C21.198 11.938 22.5624 12.4433 23.6364 13.2854L25.0767 11.938Z" fill="white"/>
<path fill-rule="evenodd" clip-rule="evenodd" d="M18.0382 25.8497L19.7159 24.0922C23.1605 24.0922 25.1546 21.028 26.3025 18.7322C26.9078 17.9658 27.8525 16.7697 27.8525 16.7697C27.9176 17.1755 27.9514 17.5914 27.9514 18.0151C27.9514 22.4383 24.2692 26.0154 19.7159 26.0154C19.1409 26.0154 18.5797 25.9583 18.0382 25.8497Z" fill="white"/>
<path d="M3.34473 34.8029C4.26304 33.8846 23.2414 13.7583 35.4855 1.51416" stroke="white" stroke-width="2.5"/>
</svg>

<svg width="39" height="36" fill="none" xmlns="http://www.w3.org/2000/svg"><path fill-rule="evenodd" clip-rule="evenodd" d="M19.716 6.669C8.432 6.669 1.701 15.592.95 16.63a2.375 2.375 0 000 2.77c.505.697 3.707 4.951 9.174 7.67l1.417-1.45c-5.336-2.463-8.46-6.627-8.928-7.297a.576.576 0 010-.616c.673-.923 6.81-9.115 17.104-9.115 2.748 0 5.2.583 7.33 1.457l1.487-1.457c-2.512-1.135-5.463-1.923-8.817-1.923zm18.768 9.961c-.394-.543-2.42-3.24-5.878-5.692l-1.139 1.567c3.155 2.248 5.002 4.72 5.354 5.202.158.192.119.423 0 .654l-.04.038c-1.584 2.116-7.483 9.04-17.065 9.04-1.317 0-1.982.234-3.16 0l-1.477 1.406c1.446.327 2.993.516 4.637.516 10.493 0 16.946-7.5 18.689-9.808l.079-.115c.594-.885.594-2 0-2.808z" fill="#fff"/><path fill-rule="evenodd" clip-rule="evenodd" d="M25.077 11.938a8.349 8.349 0 00-5.36-1.923c-4.554 0-8.236 3.577-8.236 8 0 1.99.745 3.809 1.98 5.207l1.703-1.046a5.963 5.963 0 01-1.704-4.16c0-3.347 2.812-6.078 6.256-6.078 1.482 0 2.846.505 3.92 1.347l1.44-1.347zM18.038 25.85l1.678-1.758c3.444 0 5.439-3.064 6.586-5.36l1.55-1.962c.066.405.1.821.1 1.245 0 4.423-3.683 8-8.236 8a8.527 8.527 0 01-1.678-.165z" fill="#fff"/><path d="M3.345 34.803c.918-.918 19.896-21.045 32.14-33.289" stroke="#fff" stroke-width="2.5"/></svg>
